X:1
T:Five Foot Flirt
M:6/8
L:1/8
K:E
 B,| GGG EEE| B,/2 E3/2 E E2 A| AAA AEE| G3- GB, B,| CCC EDC| B,EF G3|\
 GGG G/2G/2 G2| F3- F2 B,| GGG EEE| B,/2 E3/2 E E2 A| AAA AEE| G3- GB, B,|\
 C/2 C3/2 C EDC| B,EF GBB| B3 G/2 F/2- F2| E3- EC B,| B,2 B, CEF| GBc BGF|\
 E/2 D3/2 E FEC| B,3- B,E C| B,B,B, CEF| GBc B A3/2 G/2| FCD EFG| FGF DCB,|\
 B,B,B, C/2 E3/2 F| G/2 B3/2 c B/2 G3/2 F| EEE AEE| G3- G2 B,| CCC E/2E/2 DC|\
 B,EF GBB| B3G/2-F/2 F2| E3- E2||
